X: 311
T: Shuigua xibaoto
L: 1/8
M: 2/4
K: E
c B A B [I:setbarnb 1]| 
c> f e c | 
B4 | 
f e c/ e/ c/ B/ | 
A4 | 
B A B e | 
c B A F | 
E3F | 
C E C B, | 
B,2E2 | 
f e c/ e/ c/ B/ | 
f e c/ e/ c/ B/ | 
A4 | 
B A B e | 
c B A F | 
E3F | 
C E C B, | 
B A F E | 
F4 | 
B4 | 
e d c B | 
A B e c | 
B A/ B/ c/ A/ F/ B/ | 
E3F/ E/ | 
C E C B, | 
e c B A | 
E F F C | 
B,3C/ B,/ | 
A B, E C | 
B,3C | 
B,4 |]

@@@ Tune index: 9185
